; generated by PrusaSlicer 2.3.1+win64 on 2021-04-28 at 12:14:48 UTC

; 

; external perimeters extrusion width = 0.45mm
; perimeters extrusion width = 0.45mm
; infill extrusion width = 0.45mm
; solid infill extrusion width = 0.45mm
; top infill extrusion width = 0.40mm
; support material extrusion width = 0.35mm
; first layer extrusion width = 0.42mm

M73 P0 R119
M73 Q0 S120
M201 X1000 Y1000 Z200 E5000 ; sets maximum accelerations, mm/sec^2
M203 X200 Y200 Z12 E120 ; sets maximum feedrates, mm/sec
M204 P1250 R1250 T1250 ; sets acceleration (P, T) and retract acceleration (R), mm/sec^2
M205 X8.00 Y8.00 Z0.40 E4.50 ; sets the jerk limits, mm/sec
M205 S0 T0 ; sets the minimum extruding and travel feed rate, mm/sec
M107
;TYPE:Custom
M862.3 P "MK3S" ; printer model check
M862.1 P0.4 ; nozzle diameter check
M115 U3.9.3 ; tell printer latest fw version
G90 ; use absolute coordinates
M83 ; extruder relative mode
M104 S215 ; set extruder temp
M140 S60 ; set bed temp
M190 S60 ; wait for bed temp
M109 S215 ; wait for extruder temp
G28 W ; home all without mesh bed level
G80 ; mesh bed leveling
G1 Y-3.0 F1000.0 ; go outside print area
G92 E0.0
G1 X60.0 E9.0 F1000.0 ; intro line
G1 X100.0 E12.5 F1000.0 ; intro line
G92 E0.0
M221 S95

; Don't change E values below. Excessive value can damage the printer.
M907 E430 ; set extruder motor current
G21 ; set units to millimeters
G90 ; use absolute coordinates
M83 ; use relative distances for extrusion
M900 K0.05 ; Filament gcode LA 1.5
M900 K30 ; Filament gcode LA 1.0
;LAYER_CHANGE
;Z:0.2
;HEIGHT:0.2
;BEFORE_LAYER_CHANGE
G92 E0.0
;0.2


G1 E-0.80000 F2100.000
G1 Z0.400 F10800.000
;AFTER_LAYER_CHANGE
;0.2
G1 X84.850 Y44.235
G1 Z0.200
G1 E0.80000 F2100.000
M204 S1000
;TYPE:Skirt
;WIDTH:0.42
G1 F1200.000
G1 X85.327 Y43.655 E0.02355
G1 X85.962 Y43.253 E0.02355
G1 X86.693 Y43.069 E0.02367
G1 X105.954 Y43.060 E0.60389
G1 X144.670 Y47.968 E1.22363
G1 X164.224 Y57.693 E0.68475
G1 X164.933 Y58.274 E0.02872
G1 X165.368 Y59.076 E0.02860
G1 X165.477 Y59.784 E0.02249
G1 X165.435 Y155.485 E3.00062
M73 Q0 S119
G1 X165.280 Y155.986 E0.01645
G1 X165.021 Y156.438 E0.01633
G1 X164.670 Y156.823 E0.01633
G1 X164.244 Y157.122 E0.01633
G1 X144.760 Y166.831 E0.68255
G1 X144.063 Y166.940 E0.02213
G1 X124.992 Y166.940 E0.59794
G1 X124.073 Y166.752 E0.02942
G1 X85.615 Y142.687 E1.42244
G1 X85.011 Y142.129 E0.02579
G1 X84.632 Y141.399 E0.02579
G1 X84.523 Y140.691 E0.02249
G1 X84.523 Y45.437 E2.98661
G1 X84.577 Y44.934 E0.01585
G1 X84.828 Y44.290 E0.02167
;WIPE_START
G1 F8640.000
G1 X85.327 Y43.655 E-0.18663
G1 X85.962 Y43.253 E-0.17341
G1 X86.693 Y43.069 E-0.17428
G1 X87.671 Y43.068 E-0.22568
;WIPE_END
G1 E-0.04000 F2100.000
G1 Z0.600 F10800.000
G1 X107.508 Y40.951
G1 Z0.200
G1 E0.80000 F2100.000
G1 F1200.000
G1 X106.514 Y40.735 E0.03191
G1 X86.243 Y40.743 E0.63557
G1 X84.962 Y41.104 E0.04175
G1 X83.832 Y41.835 E0.04219
G1 X82.850 Y42.967 E0.04699
G1 X82.279 Y44.318 E0.04597
G1 X82.187 Y45.039 E0.02280
G1 X82.187 Y141.096 E3.01181
G1 X82.320 Y141.953 E0.02720
G1 X82.897 Y143.230 E0.04392
G1 X83.836 Y144.293 E0.04449
G1 X84.903 Y144.994 E0.04001
G1 X86.184 Y145.373 E0.04189
G1 X89.562 Y145.379 E0.10590
G1 X90.274 Y145.380 F10800.000
G1 F1200.000
G1 X101.248 Y145.400 E0.34406
G1 X101.301 Y151.159 E0.18057
G1 X101.691 Y152.310 E0.03811
G1 X101.942 Y152.681 E0.01405
;WIPE_START
G1 F8640.000
G1 X101.691 Y152.310 E-0.10347
G1 X101.301 Y151.159 E-0.28068
G1 X101.286 Y149.531 E-0.37585
;WIPE_END
G1 E-0.04000 F2100.000
G1 Z0.600 F10800.000
G1 X102.704 Y153.603
G1 Z0.200
G1 E0.80000 F2100.000
G1 F1200.000
G1 X103.305 Y154.147 E0.02543
G1 X104.509 Y154.732 E0.04199
;WIPE_START
G1 F8640.000
G1 X103.305 Y154.147 E-0.30920
G1 X102.704 Y153.603 E-0.18725
;WIPE_END
G1 E-0.30354 F2100.000
G1 Z0.600 F10800.000
G1 X105.524 Y154.922
G1 Z0.200
G1 E0.80000 F2100.000
G1 F1200.000
G1 X120.288 Y154.925 E0.46292
G1 X120.317 Y164.179 E0.29015
G1 X120.319 Y164.625 F10800.000
G1 F1200.000
G1 X120.321 Y165.329 E0.02208
G1 X120.650 Y166.458 E0.03687
G1 X121.227 Y167.431 E0.03547
G1 X122.072 Y168.283 E0.03764
G1 X123.070 Y168.901 E0.03680
G1 X124.490 Y169.276 E0.04604
G1 X144.459 Y169.276 E0.62612
G1 X145.316 Y169.143 E0.02718
G1 X146.688 Y168.504 E0.04747
G1 X147.651 Y167.632 E0.04074
G1 X148.332 Y166.614 E0.03838
G1 X148.709 Y165.449 E0.03839
G1 X148.712 Y165.073 E0.01181
G1 X148.715 Y164.650 F10800.000
G1 F1200.000
G1 X148.753 Y159.751 E0.15361
G1 X158.581 Y159.733 E0.30817
G1 X159.430 Y159.732 F10800.000
G1 F1200.000
G1 X163.816 Y159.724 E0.13753
G1 X165.099 Y159.344 E0.04194
M73 P0 R118
G1 X166.166 Y158.643 E0.04006
G1 X167.087 Y157.617 E0.04322
G1 X167.451 Y156.941 E0.02406
G1 X167.702 Y156.240 E0.02337
G1 X167.814 Y59.380 E3.03695
G1 X167.680 Y58.522 E0.02724
G1 X167.103 Y57.245 E0.04393
G1 X166.164 Y56.182 E0.04449
G1 X165.097 Y55.481 E0.04001
G1 X163.816 Y55.102 E0.04189
G1 X159.422 Y55.094 E0.13778
G1 X158.572 Y55.093 F10800.000
G1 F1200.000
G1 X148.750 Y55.075 E0.30797
G1 X148.702 Y50.184 E0.15337
G1 X148.697 Y49.761 F10800.000
G1 F1200.000
G1 X148.693 Y49.298 E0.01451
G1 X148.160 Y47.879 E0.04753
G1 X147.663 Y47.211 E0.02611
G1 X146.994 Y46.555 E0.02936
G1 X145.940 Y45.908 E0.03881
G1 X144.763 Y45.577 E0.03832
G1 X127.294 Y45.575 E0.54773
;WIPE_START
G1 F8640.000
G1 X130.585 Y45.576 E-0.76000
;WIPE_END
G1 E-0.04000 F2100.000
G1 Z0.600 F10800.000
G1 X124.294 Y45.575
G1 Z0.200
G1 E0.80000 F2100.000
G1 F1200.000
G1 X123.234 Y45.858 E0.03440
G1 X122.303 Y46.364 E0.03322
G1 X121.241 Y47.381 E0.04611
G1 X120.691 Y48.269 E0.03276
G1 X120.346 Y49.352 E0.03562
G1 X120.314 Y50.249 E0.02814
G1 X110.649 Y50.249 E0.30304
G1 X110.602 Y44.513 E0.17984
G1 X110.367 Y43.809 E0.02326
G1 X110.234 Y43.413 F10800.000
G1 F1200.000
G1 X110.210 Y43.341 E0.00238
G1 X109.504 Y42.318 E0.03895
G1 X108.436 Y41.393 E0.04430
G1 X107.508 Y40.951 E0.03222
;WIPE_START
G1 F8640.000
G1 X108.436 Y41.393 E-0.23730
G1 X109.504 Y42.318 E-0.32625
G1 X109.988 Y43.018 E-0.19646
;WIPE_END
G1 E-0.04000 F2100.000
G1 Z0.600 F10800.000
G1 X106.455 Y41.108
G1 Z0.200
G1 E0.80000 F2100.000
G1 F1200.000
G1 X107.369 Y41.302 E0.02930
G1 X108.210 Y41.695 E0.02909
G1 X109.239 Y42.588 E0.04272
G1 X109.769 Y43.354 E0.02920
G1 X109.954 Y43.757 F10800.000
G1 F1200.000
G1 X110.225 Y44.547 E0.02618
G1 X110.275 Y50.626 E0.19059
G1 X120.683 Y50.626 E0.32635
G1 X120.714 Y49.440 E0.03719
G1 X121.043 Y48.406 E0.03402
G1 X121.520 Y47.635 E0.02841
G1 X122.507 Y46.681 E0.04305
G1 X123.354 Y46.216 E0.03028
G1 X124.367 Y45.946 E0.03289
G1 X127.219 Y45.946 E0.08941
;WIPE_START
G1 F8640.000
G1 X124.367 Y45.946 E-0.65847
G1 X123.942 Y46.059 E-0.10153
;WIPE_END
G1 E-0.04000 F2100.000
G1 Z0.600 F10800.000
G1 X130.218 Y45.946
G1 Z0.200
G1 E0.80000 F2100.000
G1 F1200.000
G1 X144.686 Y45.947 E0.45363
G1 X145.811 Y46.264 E0.03666
G1 X146.777 Y46.864 E0.03565
G1 X147.389 Y47.469 E0.02699
G1 X147.818 Y48.040 E0.02239
G1 X148.316 Y49.336 E0.04354
G1 X148.319 Y49.572 E0.00740
G1 X148.323 Y49.995 F10800.000
G1 F1200.000
G1 X148.376 Y55.452 E0.17109
G1 X159.322 Y55.466 E0.34321
G1 X160.171 Y55.467 F10800.000
G1 F1200.000
G1 X163.737 Y55.472 E0.11181
G1 X164.916 Y55.813 E0.03848
G1 X165.900 Y56.452 E0.03679
G1 X166.773 Y57.428 E0.04105
G1 X167.311 Y58.607 E0.04063
G1 X167.436 Y59.395 E0.02502
G1 X167.336 Y156.143 E3.03346
G1 X167.101 Y156.800 E0.02189
G1 X166.767 Y157.417 E0.02199
G1 X165.904 Y158.371 E0.04033
G1 X164.917 Y159.012 E0.03689
G1 X163.737 Y159.354 E0.03852
G1 X160.178 Y159.359 E0.11160
G1 X159.330 Y159.360 F10800.000
G1 F1200.000
G1 X148.378 Y159.374 E0.34339
G1 X148.337 Y164.838 E0.17133
G1 X148.334 Y165.261 F10800.000
G1 F1200.000
G1 X148.332 Y165.416 E0.00486
G1 X147.982 Y166.471 E0.03483
G1 X147.381 Y167.368 E0.03385
G1 X146.456 Y168.205 E0.03912
G1 X145.230 Y168.775 E0.04238
G1 X144.444 Y168.899 E0.02497
G1 X124.514 Y168.899 E0.62489
G1 X123.245 Y168.565 E0.04115
G1 X122.290 Y167.975 E0.03519
G1 X121.513 Y167.184 E0.03478
G1 X120.987 Y166.289 E0.03255
G1 X120.691 Y165.251 E0.03383
G1 X120.690 Y164.857 E0.01236
G1 X120.689 Y164.412 F10800.000
G1 F1200.000
G1 X120.664 Y154.548 E0.30926
G1 X105.557 Y154.548 E0.47368
G1 X104.664 Y154.384 E0.02848
;WIPE_START
G1 F8640.000
G1 X105.557 Y154.548 E-0.20972
G1 X107.940 Y154.548 E-0.55028
;WIPE_END
G1 E-0.04000 F2100.000
G1 Z0.600 F10800.000
G1 X102.932 Y153.301
G1 Z0.200
G1 E0.80000 F2100.000
G1 F1200.000
G1 X102.615 Y153.013 E0.01342
G1 X102.039 Y152.162 E0.03224
G1 X101.678 Y151.124 E0.03447
G1 X101.621 Y145.023 E0.19129
G1 X89.679 Y145.008 E0.37444
G1 X88.967 Y145.007 F10800.000
G1 F1200.000
G1 X86.263 Y145.003 E0.08478
G1 X85.084 Y144.662 E0.03848
G1 X84.100 Y144.023 E0.03679
G1 X83.227 Y143.047 E0.04105
G1 X82.689 Y141.868 E0.04063
G1 X82.564 Y141.081 E0.02499
G1 X82.564 Y45.051 E3.01094
G1 X82.650 Y44.393 E0.02082
G1 X83.185 Y43.144 E0.04260
G1 X84.097 Y42.104 E0.04338
G1 X85.140 Y41.437 E0.03881
G1 X86.318 Y41.113 E0.03832
G1 X106.455 Y41.108 E0.63138
G1 X107.233 Y41.654 F10800.000
G1 F1200.000
G1 X106.398 Y41.481 E0.02672
G1 X86.391 Y41.484 E0.62730
G1 X85.316 Y41.772 E0.03491
G1 X84.360 Y42.375 E0.03544
G1 X83.518 Y43.323 E0.03975
G1 X83.020 Y44.469 E0.03920
G1 X82.941 Y45.064 E0.01881
G1 X82.941 Y141.066 E3.01006
M73 P1 R118
M73 Q1 S118
G1 X83.057 Y141.782 E0.02274
G1 X83.557 Y142.861 E0.03731
G1 X84.362 Y143.751 E0.03761
G1 X85.263 Y144.329 E0.03358
G1 X86.340 Y144.633 E0.03508
G1 X88.373 Y144.635 E0.06374
G1 X89.085 Y144.635 F10800.000
G1 F1200.000
G1 X101.996 Y144.646 E0.40482
G1 X102.044 Y151.031 E0.20020
G1 X102.366 Y151.974 E0.03122
G1 X102.888 Y152.751 E0.02937
G1 X103.728 Y153.523 E0.03577
G1 X104.759 Y154.025 E0.03596
G1 X105.573 Y154.171 E0.02594
G1 X121.041 Y154.171 E0.48497
G1 X121.060 Y164.644 E0.32836
G1 X121.061 Y165.089 F10800.000
G1 F1200.000
G1 X121.061 Y165.175 E0.00268
G1 X121.326 Y166.121 E0.03081
G1 X121.799 Y166.937 E0.02956
G1 X122.543 Y167.694 E0.03328
G1 X123.418 Y168.229 E0.03216
G1 X124.538 Y168.522 E0.03632
G1 X144.429 Y168.522 E0.62365
G1 X145.145 Y168.406 E0.02274
G1 X146.224 Y167.906 E0.03731
G1 X147.111 Y167.104 E0.03751
G1 X147.634 Y166.325 E0.02941
G1 X147.928 Y165.464 E0.02853
G1 X147.958 Y165.027 F10800.000
G1 F1200.000
G1 X148.004 Y158.997 E0.18906
G1 X160.078 Y158.987 E0.37857
G1 X160.925 Y158.986 F10800.000
G1 F1200.000
G1 X163.660 Y158.984 E0.08577
G1 X164.738 Y158.679 E0.03512
G1 X165.642 Y158.098 E0.03371
G1 X166.447 Y157.216 E0.03743
G1 X166.751 Y156.659 E0.01989
G1 X166.970 Y156.046 E0.02041
G1 X167.059 Y59.410 E3.02995
G1 X166.944 Y58.694 E0.02277
G1 X166.443 Y57.614 E0.03731
G1 X165.638 Y56.724 E0.03761
G1 X164.737 Y56.146 E0.03358
G1 X163.660 Y55.842 E0.03508
G1 X160.920 Y55.840 E0.08592
G1 X160.072 Y55.839 F10800.000
G1 F1200.000
G1 X148.003 Y55.829 E0.37841
G1 X147.944 Y49.807 E0.18881
G1 X147.940 Y49.384 F10800.000
G1 F1200.000
G1 X147.478 Y48.204 E0.03973
G1 X147.113 Y47.727 E0.01881
G1 X146.559 Y47.172 E0.02460
G1 X145.636 Y46.598 E0.03408
G1 X144.611 Y46.317 E0.03332
G1 X133.142 Y46.317 E0.35961
;WIPE_START
G1 F8640.000
G1 X136.433 Y46.317 E-0.76000
;WIPE_END
G1 E-0.04000 F2100.000
G1 Z0.600 F10800.000
G1 X130.143 Y46.317
G1 Z0.200
G1 E0.80000 F2100.000
G1 F1200.000
G1 X124.441 Y46.316 E0.17879
G1 X123.474 Y46.574 E0.03137
G1 X122.714 Y46.998 E0.02729
G1 X121.800 Y47.889 E0.04001
G1 X121.396 Y48.543 E0.02410
G1 X121.082 Y49.528 E0.03241
G1 X121.055 Y51.003 E0.04626
G1 X109.901 Y51.003 E0.34974
G1 X109.849 Y44.582 E0.20131
G1 X109.539 Y43.704 E0.02919
G1 X109.275 Y43.291 F10800.000
G1 F1200.000
G1 X108.974 Y42.857 E0.01654
G1 X107.983 Y41.998 E0.04112
G1 X107.233 Y41.654 E0.02589
;WIPE_START
G1 F8640.000
G1 X107.983 Y41.998 E-0.19069
G1 X108.974 Y42.857 E-0.30279
G1 X109.275 Y43.291 E-0.12181
;WIPE_END
G1 E-0.18471 F2100.000
G1 Z0.600 F10800.000
G1 X108.780 Y43.228
G1 Z0.200
G1 E0.80000 F2100.000
G1 F1200.000
G1 X108.709 Y43.127 E0.00387
G1 X107.758 Y42.302 E0.03948
G1 X107.098 Y42.007 E0.02266
G1 X106.379 Y41.858 E0.02304
G1 X86.462 Y41.855 E0.62447
G1 X85.490 Y42.108 E0.03151
G1 X84.622 Y42.648 E0.03206
G1 X83.850 Y43.504 E0.03612
G1 X83.390 Y44.547 E0.03576
G1 X83.318 Y45.077 E0.01677
G1 X83.318 Y141.050 E3.00916
G1 X83.424 Y141.694 E0.02046
G1 X83.885 Y142.674 E0.03397
G1 X84.622 Y143.476 E0.03416
G1 X85.440 Y143.995 E0.03038
G1 X86.415 Y144.263 E0.03169
G1 X87.779 Y144.263 E0.04278
G1 X88.490 Y144.264 F10800.000
G1 F1200.000
G1 X102.371 Y144.269 E0.43521
M73 P1 R117
G1 X102.412 Y150.941 E0.20918
G1 X102.695 Y151.787 E0.02798
G1 X103.160 Y152.490 E0.02642
G1 X103.962 Y153.226 E0.03413
G1 X104.897 Y153.674 E0.03252
G1 X105.589 Y153.794 E0.02202
G1 X121.418 Y153.794 E0.49629
G1 X121.431 Y164.876 E0.34747
G1 X121.504 Y165.367 F10800.000
G1 F1200.000
G1 X121.665 Y165.956 E0.01915
G1 X122.085 Y166.690 E0.02652
G1 X122.795 Y167.412 E0.03174
G1 X123.589 Y167.892 E0.02909
G1 X124.562 Y168.145 E0.03154
G1 X144.413 Y168.145 E0.62241
G1 X145.057 Y168.039 E0.02046
G1 X146.037 Y167.578 E0.03397
G1 X146.839 Y166.842 E0.03412
G1 X147.305 Y166.138 E0.02649
G1 X147.452 Y165.701 E0.01445
G1 X147.589 Y165.211 F10800.000
G1 F1200.000
G1 X147.629 Y158.620 E0.20665
G1 X160.825 Y158.615 E0.41374
G1 X161.671 Y158.615 F10800.000
G1 F1200.000
G1 X163.585 Y158.614 E0.06002
G1 X164.561 Y158.346 E0.03172
G1 X165.382 Y157.824 E0.03052
G1 X166.128 Y157.014 E0.03452
G1 X166.401 Y156.517 E0.01776
G1 X166.604 Y155.950 E0.01891
G1 X166.682 Y59.426 E3.02644
G1 X166.576 Y58.781 E0.02048
G1 X166.115 Y57.801 E0.03397
G1 X165.378 Y56.999 E0.03416
G1 X164.560 Y56.480 E0.03038
G1 X163.585 Y56.212 E0.03169
G1 X161.667 Y56.211 E0.06014
G1 X160.820 Y56.211 F10800.000
G1 F1200.000
G1 X147.628 Y56.206 E0.41361
G1 X147.577 Y49.624 E0.20636
G1 X147.443 Y49.137 F10800.000
G1 F1200.000
G1 X147.161 Y48.410 E0.02443
G1 X146.838 Y47.985 E0.01677
G1 X146.307 Y47.454 E0.02353
G1 X145.509 Y46.955 E0.02951
G1 X144.535 Y46.687 E0.03166
G1 X136.064 Y46.687 E0.26561
;WIPE_START
G1 F8640.000
G1 X139.356 Y46.687 E-0.76000
;WIPE_END
G1 E-0.04000 F2100.000
G1 Z0.600 F10800.000
G1 X133.066 Y46.687
G1 Z0.200
G1 E0.80000 F2100.000
G1 F1200.000
G1 X124.514 Y46.687 E0.26815
G1 X123.595 Y46.932 E0.02982
G1 X122.921 Y47.314 E0.02427
G1 X122.107 Y48.109 E0.03569
G1 X121.747 Y48.681 E0.02117
G1 X121.450 Y49.615 E0.03074
G1 X121.429 Y51.380 E0.05534
G1 X109.527 Y51.380 E0.37318
G1 X109.472 Y44.619 E0.21200
G1 X109.170 Y43.791 E0.02762
G1 X109.069 Y43.645 E0.00557
G1 X108.571 Y43.582 F10800.000
G1 F1200.000
G1 X108.845 Y43.983 E0.01522
G1 X109.106 Y44.715 E0.02438
G1 X109.152 Y51.757 E0.22081
G1 X121.805 Y51.757 E0.39672
G1 X121.818 Y49.702 E0.06444
G1 X122.099 Y48.819 E0.02903
G1 X122.412 Y48.331 E0.01819
G1 X123.131 Y47.628 E0.03153
G1 X123.717 Y47.290 E0.02120
G1 X124.587 Y47.058 E0.02825
G1 X135.990 Y47.058 E0.35753
;WIPE_START
G1 F8640.000
G1 X132.699 Y47.058 E-0.76000
;WIPE_END
G1 E-0.04000 F2100.000
G1 Z0.600 F10800.000
G1 X138.988 Y47.058
G1 Z0.200
G1 E0.80000 F2100.000
G1 F1200.000
G1 X144.463 Y47.058 E0.17165
G1 X145.335 Y47.290 E0.02831
G1 X146.056 Y47.736 E0.02658
G1 X146.562 Y48.242 E0.02241
G1 X146.844 Y48.615 E0.01468
G1 X146.949 Y48.891 E0.00925
G1 X147.146 Y49.410 F10800.000
G1 F1200.000
G1 X147.211 Y49.581 E0.00571
G1 X147.253 Y56.583 E0.21956
G1 X161.568 Y56.583 E0.44882
G1 X162.414 Y56.583 F10800.000
G1 F1200.000
G1 X163.513 Y56.583 E0.03444
G1 X164.385 Y56.815 E0.02831
G1 X165.118 Y57.273 E0.02709
G1 X165.817 Y58.034 E0.03239
G1 X166.222 Y58.914 E0.03039
G1 X166.305 Y59.440 E0.01668
G1 X166.238 Y155.853 E3.02297
G1 X166.051 Y156.375 E0.01740
G1 X165.810 Y156.810 E0.01559
G1 X165.124 Y157.548 E0.03160
G1 X164.386 Y158.010 E0.02730
G1 X163.513 Y158.243 E0.02833
G1 X162.416 Y158.243 E0.03438
G1 X161.571 Y158.243 F10800.000
G1 F1200.000
G1 X147.254 Y158.243 E0.44891
G1 X147.221 Y165.203 E0.21823
G1 X147.146 Y165.432 E0.00754
G1 X146.982 Y165.935 F10800.000
G1 F1200.000
G1 X146.566 Y166.581 E0.02407
G1 X145.804 Y167.280 E0.03241
G1 X144.924 Y167.685 E0.03039
G1 X144.399 Y167.768 E0.01667
G1 X124.587 Y167.768 E0.62117
G1 X123.714 Y167.535 E0.02835
G1 X123.013 Y167.104 E0.02579
G1 X122.372 Y166.445 E0.02883
