; generated by PrusaSlicer 2.3.1+win64 on 2021-04-30 at 18:09:27 UTC

; 

; external perimeters extrusion width = 0.45mm
; perimeters extrusion width = 0.45mm
; infill extrusion width = 0.45mm
; solid infill extrusion width = 0.45mm
; top infill extrusion width = 0.40mm
; first layer extrusion width = 0.42mm

M73 P0 R28
M73 Q0 S28
M201 X1000 Y1000 Z200 E5000 ; sets maximum accelerations, mm/sec^2
M203 X200 Y200 Z12 E120 ; sets maximum feedrates, mm/sec
M204 P1250 R1250 T1250 ; sets acceleration (P, T) and retract acceleration (R), mm/sec^2
M205 X8.00 Y8.00 Z0.40 E4.50 ; sets the jerk limits, mm/sec
M205 S0 T0 ; sets the minimum extruding and travel feed rate, mm/sec
M107
;TYPE:Custom
M862.3 P "MK3S" ; printer model check
M862.1 P0.4 ; nozzle diameter check
M115 U3.9.3 ; tell printer latest fw version
G90 ; use absolute coordinates
M83 ; extruder relative mode
M104 S215 ; set extruder temp
M140 S60 ; set bed temp
M190 S60 ; wait for bed temp
M109 S215 ; wait for extruder temp
G28 W ; home all without mesh bed level
G80 ; mesh bed leveling
G1 Y-3.0 F1000.0 ; go outside print area
G92 E0.0
G1 X60.0 E9.0 F1000.0 ; intro line
G1 X100.0 E12.5 F1000.0 ; intro line
G92 E0.0
M221 S95

; Don't change E values below. Excessive value can damage the printer.
M907 E430 ; set extruder motor current
G21 ; set units to millimeters
G90 ; use absolute coordinates
M83 ; use relative distances for extrusion
M900 K0.05 ; Filament gcode LA 1.5
M900 K30 ; Filament gcode LA 1.0
;LAYER_CHANGE
;Z:0.2
;HEIGHT:0.2
;BEFORE_LAYER_CHANGE
G92 E0.0
;0.2


G1 E-0.80000 F2100.000
G1 Z0.400 F10800.000
;AFTER_LAYER_CHANGE
;0.2
G1 X85.060 Y84.445
G1 Z0.200
G1 E0.80000 F2100.000
M204 S1000
;TYPE:Skirt
;WIDTH:0.42
G1 F1200.000
G1 X85.599 Y83.960 E0.02272
G1 X86.256 Y83.662 E0.02260
G1 X86.895 Y83.573 E0.02024
G1 X163.104 Y83.573 E2.38947
G1 X163.953 Y83.731 E0.02708
G1 X164.686 Y84.180 E0.02696
G1 X165.214 Y84.863 E0.02708
G1 X165.463 Y85.690 E0.02708
G1 X165.466 Y105.224 E0.61247
G1 X160.676 Y124.740 E0.63008
G1 X160.434 Y125.282 E0.01858
G1 X160.063 Y125.749 E0.01870
G1 X159.592 Y126.107 E0.01858
G1 X159.046 Y126.338 E0.01858
G1 X158.401 Y126.427 E0.02040
G1 X101.247 Y126.427 E1.79202
M73 P0 R27
G1 X100.615 Y126.340 E0.02000
G1 X99.923 Y126.021 E0.02390
G1 X99.369 Y125.503 E0.02378
G1 X84.992 Y106.418 E0.74918
M73 P1 R27
M73 Q1 S28
G1 X84.612 Y105.643 E0.02708
G1 X84.523 Y105.011 E0.02000
G1 X84.530 Y85.771 E0.60326
G1 X84.692 Y85.069 E0.02260
G1 X85.030 Y84.496 E0.02084
;WIPE_START
G1 F8640.000
G1 X85.599 Y83.960 E-0.18059
G1 X86.256 Y83.662 E-0.16646
G1 X86.895 Y83.573 E-0.14905
G1 X88.038 Y83.573 E-0.26389
;WIPE_END
G1 E-0.04000 F2100.000
G1 Z0.600 F10800.000
G1 X87.207 Y109.671
G1 Z0.200
G1 E0.80000 F2100.000
G1 F1200.000
G1 X86.056 Y109.666 E0.03609
G1 X84.838 Y109.276 E0.04011
G1 X83.833 Y108.603 E0.03791
G1 X82.921 Y107.580 E0.04298
G1 X82.342 Y106.338 E0.04298
G1 X82.187 Y105.401 E0.02977
G1 X82.192 Y85.393 E0.62733
M73 Q1 S27
G1 X82.543 Y84.066 E0.04303
G1 X83.292 Y82.887 E0.04382
G1 X84.317 Y81.973 E0.04305
G1 X85.561 Y81.393 E0.04303
G1 X86.499 Y81.237 E0.02983
G1 X163.586 Y81.240 E2.41701
G1 X164.535 Y81.424 E0.03029
G1 X165.443 Y81.815 E0.03101
G1 X166.662 Y82.838 E0.04990
G1 X167.402 Y83.944 E0.04171
G1 X167.786 Y85.234 E0.04219
G1 X167.814 Y105.509 E0.63574
G1 X167.508 Y106.759 E0.04033
G1 X166.999 Y107.697 E0.03344
G1 X165.982 Y108.759 E0.04612
G1 X165.094 Y109.309 E0.03276
G1 X164.621 Y109.459 E0.01555
G1 X164.200 Y109.594 F10800.000
G1 F1200.000
G1 X164.011 Y109.654 E0.00620
G1 X163.114 Y109.686 E0.02816
G1 X163.106 Y114.049 E0.13680
;WIPE_START
G1 F8640.000
G1 X163.112 Y110.758 E-0.76000
;WIPE_END
G1 E-0.04000 F2100.000
G1 Z0.600 F10800.000
G1 X163.103 Y115.642
G1 Z0.200
G1 E0.80000 F2100.000
G1 F1200.000
G1 X163.087 Y124.766 E0.28606
G1 X162.708 Y126.047 E0.04189
G1 X162.007 Y127.114 E0.04001
G1 X160.984 Y128.027 E0.04300
G1 X159.740 Y128.607 E0.04303
G1 X158.802 Y128.763 E0.02983
G1 X100.853 Y128.763 E1.81696
G1 X100.025 Y128.641 E0.02622
G1 X98.725 Y128.064 E0.04460
G1 X97.647 Y127.117 E0.04499
G1 X96.944 Y126.047 E0.04013
G1 X96.565 Y124.766 E0.04190
G1 X96.560 Y122.087 E0.08399
G1 X96.559 Y121.459 F10800.000
G1 F1200.000
G1 X96.538 Y109.711 E0.36837
G1 X87.680 Y109.673 E0.27773
G1 X87.401 Y109.302 F10800.000
G1 F1200.000
G1 X96.915 Y109.335 E0.29830
G1 X96.931 Y121.953 E0.39564
M73 P2 R27
M73 Q2 S27
G1 X96.932 Y122.581 F10800.000
G1 F1200.000
G1 X96.935 Y124.687 E0.06605
G1 X97.276 Y125.866 E0.03848
G1 X97.917 Y126.853 E0.03689
G1 X98.905 Y127.732 E0.04146
G1 X100.154 Y128.286 E0.04282
G1 X100.865 Y128.386 E0.02253
G1 X158.787 Y128.386 E1.81610
G1 X159.605 Y128.254 E0.02597
G1 X160.799 Y127.698 E0.04130
G1 X161.736 Y126.851 E0.03959
G1 X162.376 Y125.866 E0.03684
G1 X162.717 Y124.687 E0.03848
G1 X162.727 Y117.175 E0.23554
;WIPE_START
G1 F8640.000
G1 X162.723 Y120.466 E-0.76000
;WIPE_END
G1 E-0.04000 F2100.000
G1 Z0.600 F10800.000
G1 X162.729 Y115.585
G1 Z0.200
G1 E0.80000 F2100.000
G1 F1200.000
G1 X162.737 Y109.317 E0.19653
G1 X163.923 Y109.286 E0.03720
G1 X164.305 Y109.164 E0.01257
G1 X164.726 Y109.030 F10800.000
G1 F1200.000
G1 X164.957 Y108.957 E0.00759
G1 X165.728 Y108.480 E0.02841
G1 X166.682 Y107.492 E0.04305
G1 X167.148 Y106.643 E0.03038
G1 X167.436 Y105.486 E0.03739
G1 X167.416 Y85.313 E0.63253
G1 X167.072 Y84.127 E0.03871
G1 X166.397 Y83.108 E0.03832
G1 X165.266 Y82.149 E0.04647
G1 X164.441 Y81.790 E0.02823
G1 X163.568 Y81.617 E0.02791
G1 X86.514 Y81.614 E2.41596
G1 X85.696 Y81.746 E0.02597
G1 X84.502 Y82.302 E0.04130
G1 X83.565 Y83.149 E0.03959
G1 X82.878 Y84.241 E0.04047
G1 X82.564 Y85.464 E0.03957
G1 X82.564 Y105.386 E0.62466
G1 X82.696 Y106.204 E0.02599
G1 X83.222 Y107.351 E0.03954
G1 X84.098 Y108.334 E0.04130
G1 X85.023 Y108.947 E0.03479
G1 X86.141 Y109.298 E0.03675
G1 X86.928 Y109.301 E0.02466
G1 X87.122 Y108.932 F10800.000
G1 F1200.000
G1 X97.292 Y108.958 E0.31887
G1 X97.303 Y122.446 E0.42290
G1 X97.304 Y123.074 F10800.000
G1 F1200.000
G1 X97.305 Y124.610 E0.04818
G1 X97.609 Y125.687 E0.03508
G1 X98.189 Y126.590 E0.03367
G1 X99.088 Y127.400 E0.03793
G1 X100.234 Y127.916 E0.03942
G1 X100.879 Y128.009 E0.02042
G1 X158.773 Y128.009 E1.81523
M73 Q3 S27
G1 X159.472 Y127.900 E0.02219
G1 X160.568 Y127.398 E0.03778
G1 X161.464 Y126.589 E0.03786
M73 P3 R27
G1 X162.043 Y125.687 E0.03360
G1 X162.347 Y124.610 E0.03508
G1 X162.352 Y118.702 E0.18526
;WIPE_START
G1 F8640.000
G1 X162.349 Y121.993 E-0.76000
;WIPE_END
G1 E-0.04000 F2100.000
G1 Z0.600 F10800.000
G1 X162.353 Y117.115
G1 Z0.200
G1 E0.80000 F2100.000
G1 F1200.000
G1 X162.360 Y108.945 E0.25615
G1 X163.835 Y108.918 E0.04626
G1 X164.411 Y108.735 E0.01892
G1 X164.833 Y108.597 F10800.000
G1 F1200.000
G1 X165.474 Y108.200 E0.02365
G1 X166.365 Y107.286 E0.04001
G1 X166.789 Y106.526 E0.02731
G1 X167.059 Y105.462 E0.03440
G1 X167.046 Y85.390 E0.62937
G1 X166.740 Y84.308 E0.03524
G1 X166.130 Y83.376 E0.03492
G1 X165.088 Y82.483 E0.04304
G1 X164.346 Y82.155 E0.02545
G1 X163.548 Y81.994 E0.02550
G1 X86.528 Y81.991 E2.41492
G1 X85.829 Y82.100 E0.02219
G1 X84.733 Y82.602 E0.03778
G1 X83.837 Y83.411 E0.03786
G1 X83.235 Y84.366 E0.03537
G1 X82.941 Y85.488 E0.03639
G1 X82.941 Y105.372 E0.62344
G1 X83.050 Y106.071 E0.02219
G1 X83.552 Y107.167 E0.03778
G1 X84.361 Y108.063 E0.03784
G1 X85.206 Y108.616 E0.03169
G1 X86.225 Y108.929 E0.03341
G1 X86.649 Y108.930 E0.01330
G1 X86.843 Y108.561 F10800.000
G1 F1200.000
G1 X97.669 Y108.582 E0.33944
G1 X97.674 Y122.939 E0.45017
G1 X97.675 Y123.566 F10800.000
G1 F1200.000
G1 X97.675 Y124.535 E0.03038
G1 X97.943 Y125.510 E0.03169
G1 X98.461 Y126.328 E0.03036
G1 X99.318 Y127.100 E0.03614
G1 X100.361 Y127.560 E0.03576
G1 X100.891 Y127.632 E0.01677
G1 X158.760 Y127.632 E1.81444
G1 X159.340 Y127.546 E0.01839
G1 X160.383 Y127.068 E0.03598
G1 X161.190 Y126.329 E0.03432
G1 X161.709 Y125.510 E0.03039
G1 X161.977 Y124.535 E0.03169
G1 X161.979 Y120.223 E0.13520
;WIPE_START
G1 F8640.000
G1 X161.977 Y123.515 E-0.76000
;WIPE_END
G1 E-0.04000 F2100.000
G1 Z0.600 F10800.000
G1 X161.979 Y118.639
G1 Z0.200
G1 E0.80000 F2100.000
G1 F1200.000
G1 X161.983 Y108.571 E0.31567
G1 X163.748 Y108.550 E0.05534
G1 X164.516 Y108.306 E0.02526
G1 X164.960 Y108.078 F10800.000
G1 F1200.000
G1 X165.254 Y107.893 E0.01088
G1 X166.049 Y107.079 E0.03569
G1 X166.431 Y106.406 E0.02425
G1 X166.682 Y105.438 E0.03135
G1 X166.676 Y85.465 E0.62625
G1 X166.407 Y84.487 E0.03179
G1 X165.862 Y83.642 E0.03151
G1 X164.908 Y82.815 E0.03960
G1 X164.248 Y82.520 E0.02266
G1 X163.529 Y82.371 E0.02304
G1 X86.541 Y82.368 E2.41389
M73 P4 R27
M73 Q4 S27
G1 X85.961 Y82.454 E0.01839
G1 X84.918 Y82.932 E0.03598
G1 X84.111 Y83.671 E0.03429
G1 X83.571 Y84.540 E0.03209
G1 X83.318 Y85.512 E0.03150
G1 X83.318 Y105.359 E0.62228
G1 X83.404 Y105.939 E0.01839
G1 X83.882 Y106.982 E0.03598
G1 X84.621 Y107.789 E0.03432
G1 X85.388 Y108.284 E0.02860
G1 X86.306 Y108.560 E0.03008
G1 X86.370 Y108.560 E0.00200
G1 X86.564 Y108.191 F10800.000
G1 F1200.000
G1 X98.046 Y108.205 E0.36001
G1 X98.046 Y123.432 E0.47744
G1 X98.046 Y124.059 F10800.000
G1 F1200.000
G1 X98.046 Y124.463 E0.01266
G1 X98.278 Y125.335 E0.02831
G1 X98.736 Y126.068 E0.02709
G1 X99.501 Y126.769 E0.03252
G1 X100.440 Y127.191 E0.03230
G1 X100.904 Y127.255 E0.01468
G1 X158.748 Y127.255 E1.81364
M73 P4 R26
G1 X159.212 Y127.191 E0.01468
G1 X160.151 Y126.769 E0.03230
G1 X160.916 Y126.068 E0.03252
G1 X161.374 Y125.335 E0.02709
G1 X161.606 Y124.463 E0.02831
G1 X161.606 Y121.740 E0.08535
;WIPE_START
G1 F8640.000
G1 X161.606 Y124.463 E-0.62858
G1 X161.460 Y125.013 E-0.13142
;WIPE_END
G1 E-0.04000 F2100.000
G1 Z0.600 F10800.000
G1 X161.606 Y120.159
G1 Z0.200
G1 E0.80000 F2100.000
G1 F1200.000
G1 X161.606 Y108.195 E0.37510
G1 X163.661 Y108.182 E0.06444
G1 X164.544 Y107.901 E0.02903
G1 X164.629 Y107.846 E0.00317
G1 X165.097 Y107.521 F10800.000
G1 F1200.000
G1 X165.735 Y106.869 E0.02862
G1 X166.073 Y106.283 E0.02120
G1 X166.305 Y105.413 E0.02825
G1 X166.305 Y85.537 E0.62318
G1 X166.072 Y84.664 E0.02835
G1 X165.592 Y83.907 E0.02809
G1 X164.728 Y83.147 E0.03609
G1 X164.113 Y82.873 E0.02110
G1 X163.510 Y82.748 E0.01933
G1 X86.553 Y82.745 E2.41291
M73 Q4 S26
G1 X86.089 Y82.809 E0.01469
G1 X85.150 Y83.231 E0.03230
G1 X84.385 Y83.932 E0.03252
G1 X83.927 Y84.665 E0.02709
G1 X83.695 Y85.537 E0.02831
G1 X83.695 Y105.347 E0.62111
M73 P5 R26
M73 Q5 S26
G1 X83.759 Y105.811 E0.01468
G1 X84.181 Y106.750 E0.03230
G1 X84.882 Y107.516 E0.03255
G1 X85.566 Y107.951 E0.02542
G1 X86.009 Y108.081 E0.01445
G1 X86.237 Y107.757 F10800.000
G1 F1200.000
G1 X86.462 Y107.821 E0.00734
G1 X98.423 Y107.828 E0.37501
G1 X98.423 Y123.933 E0.50495
G1 X98.476 Y124.630 F10800.000
G1 F1200.000
G1 X98.634 Y125.208 E0.01881
G1 X99.011 Y125.810 E0.02226
G1 X99.687 Y126.439 E0.02895
G1 X100.522 Y126.821 E0.02879
G1 X100.918 Y126.878 E0.01256
G1 X158.734 Y126.878 E1.81278
G1 X159.130 Y126.821 E0.01256
G1 X159.965 Y126.439 E0.02879
G1 X160.641 Y125.810 E0.02895
G1 X161.018 Y125.208 E0.02226
G1 X161.229 Y124.437 E0.02508
G1 X161.229 Y123.277 E0.03638
;WIPE_START
G1 F8640.000
G1 X161.229 Y124.437 E-0.26791
G1 X161.018 Y125.208 E-0.18469
G1 X160.641 Y125.810 E-0.16391
G1 X160.186 Y126.234 E-0.14349
;WIPE_END
G1 E-0.04000 F2100.000
G1 Z0.600 F10800.000
G1 X161.229 Y121.695
G1 Z0.200
G1 E0.80000 F2100.000
G1 F1200.000
G1 X161.229 Y107.821 E0.43501
G1 X163.630 Y107.805 E0.07528
G1 X164.363 Y107.569 E0.02414
G1 X164.758 Y107.320 E0.01464
G1 X165.271 Y106.810 F10800.000
G1 F1200.000
G1 X165.423 Y106.656 E0.00676
G1 X165.717 Y106.158 E0.01813
G1 X165.928 Y105.387 E0.02508
G1 X165.928 Y85.563 E0.62156
G1 X165.716 Y84.791 E0.02510
G1 X165.322 Y84.171 E0.02306
G1 X164.545 Y83.478 E0.03263
G1 X164.014 Y83.237 E0.01829
G1 X163.489 Y83.126 E0.01681
G1 X86.567 Y83.122 E2.41184
G1 X86.171 Y83.179 E0.01256
G1 X85.336 Y83.561 E0.02879
G1 X84.660 Y84.190 E0.02895
G1 X84.283 Y84.792 E0.02226
G1 X84.072 Y85.563 E0.02508
G1 X84.072 Y105.333 E0.61987
G1 X84.129 Y105.729 E0.01256
G1 X84.511 Y106.564 E0.02879
G1 X85.140 Y107.240 E0.02895
G1 X85.585 Y107.518 E0.01646
G1 X85.857 Y107.252 F10800.000
G1 F1200.000
G1 X86.540 Y107.451 E0.02231
G1 X98.800 Y107.451 E0.38440
G1 X98.811 Y124.448 E0.53291
;WIPE_START
G1 F8640.000
G1 X98.809 Y121.156 E-0.76000
;WIPE_END
G1 E-0.04000 F2100.000
G1 Z0.600 F10800.000
G1 X160.852 Y123.231
G1 Z0.200
G1 E0.80000 F2100.000
G1 F1200.000
G1 X160.852 Y107.446 E0.49492
G1 X163.598 Y107.428 E0.08609
G1 X164.184 Y107.237 E0.01935
G1 X164.530 Y107.023 E0.01274
G1 X164.928 Y106.625 E0.01766
;WIPE_START
G1 F8640.000
G1 X164.530 Y107.023 E-0.13002
M73 Q6 S26
G1 X164.184 Y107.237 E-0.09384
G1 X163.598 Y107.428 E-0.14247
G1 X161.893 Y107.439 E-0.39367
;WIPE_END
G1 E-0.04000 F2100.000
G1 Z0.600 F10800.000
G1 X160.475 Y107.072
M73 P6 R26
G1 Z0.200
G1 E0.80000 F2100.000
G1 F1200.000
G1 X160.475 Y124.382 E0.54275
G1 X160.309 Y124.946 E0.01842
G1 X160.084 Y125.299 E0.01314
G1 X159.584 Y125.786 E0.02188
G1 X158.961 Y126.085 E0.02167
G1 X158.705 Y126.124 E0.00812
G1 X100.947 Y126.124 E1.81095
G1 X100.691 Y126.085 E0.00812
G1 X100.068 Y125.786 E0.02167
G1 X99.568 Y125.299 E0.02188
G1 X99.343 Y124.946 E0.01314
G1 X99.177 Y124.382 E0.01842
G1 X99.177 Y107.074 E0.54268
G1 X86.568 Y107.074 E0.39535
G1 X86.004 Y106.908 E0.01842
G1 X85.651 Y106.683 E0.01314
G1 X85.164 Y106.183 E0.02188
G1 X84.865 Y105.560 E0.02167
G1 X84.826 Y105.304 E0.00812
G1 X84.826 Y85.618 E0.61723
G1 X84.992 Y85.054 E0.01842
G1 X85.217 Y84.701 E0.01314
G1 X85.717 Y84.214 E0.02188
G1 X86.340 Y83.915 E0.02167
G1 X86.596 Y83.876 E0.00812
G1 X163.446 Y83.880 E2.40956
G1 X163.805 Y83.963 E0.01157
G1 X164.171 Y84.135 E0.01268
G1 X164.776 Y84.693 E0.02580
G1 X165.008 Y85.055 E0.01347
G1 X165.174 Y85.618 E0.01841
G1 X165.174 Y105.332 E0.61811
G1 X165.008 Y105.897 E0.01845
G1 X164.806 Y106.221 E0.01199
G1 X164.282 Y106.738 E0.02306
G1 X164.008 Y106.903 E0.01004
G1 X163.565 Y107.052 E0.01466
G1 X160.535 Y107.071 E0.09500
G1 X160.098 Y106.697 F10800.000
G1 F1200.000
G1 X160.098 Y124.352 E0.55358
G1 X159.957 Y124.808 E0.01496
G1 X159.803 Y125.048 E0.00892
G1 X159.388 Y125.463 E0.01841
G1 X158.871 Y125.717 E0.01806
G1 X158.689 Y125.747 E0.00579
G1 X100.963 Y125.747 E1.80996
G1 X100.781 Y125.717 E0.00579
G1 X100.264 Y125.463 E0.01806
G1 X99.849 Y125.048 E0.01841
G1 X99.695 Y124.808 E0.00892
G1 X99.554 Y124.352 E0.01496
G1 X99.554 Y106.697 E0.55358
M73 P7 R26
M73 Q7 S26
G1 X86.598 Y106.697 E0.40624
G1 X86.142 Y106.556 E0.01496
G1 X85.902 Y106.402 E0.00892
G1 X85.487 Y105.987 E0.01841
G1 X85.233 Y105.470 E0.01806
G1 X85.203 Y105.288 E0.00579
G1 X85.203 Y85.648 E0.61581
G1 X85.344 Y85.192 E0.01496
G1 X85.498 Y84.952 E0.00892
G1 X85.913 Y84.537 E0.01841
G1 X86.430 Y84.283 E0.01806
G1 X86.612 Y84.253 E0.00579
G1 X163.424 Y84.257 E2.40838
G1 X163.662 Y84.312 E0.00767
G1 X163.982 Y84.463 E0.01109
G1 X164.501 Y84.951 E0.02233
G1 X164.656 Y85.192 E0.00898
G1 X164.797 Y85.648 E0.01495
G1 X164.797 Y105.302 E0.61626
G1 X164.656 Y105.758 E0.01495
G1 X164.502 Y105.998 E0.00894
G1 X164.036 Y106.452 E0.02040
G1 X163.862 Y106.555 E0.00633
G1 X163.528 Y106.675 E0.01112
G1 X160.158 Y106.697 E0.10568
G1 X159.721 Y106.320 F10800.000
G1 F1200.000
G1 X159.721 Y124.321 E0.56439
G1 X159.608 Y124.665 E0.01136
G1 X159.523 Y124.794 E0.00484
G1 X159.144 Y125.174 E0.01682
G1 X158.780 Y125.351 E0.01270
G1 X158.672 Y125.370 E0.00345
G1 X100.980 Y125.370 E1.80886
G1 X100.872 Y125.351 E0.00345
G1 X100.508 Y125.174 E0.01270
G1 X100.129 Y124.794 E0.01682
G1 X100.044 Y124.665 E0.00484
G1 X99.931 Y124.321 E0.01136
G1 X99.931 Y106.320 E0.56441
G1 X86.629 Y106.320 E0.41707
G1 X86.285 Y106.207 E0.01136
G1 X86.156 Y106.122 E0.00484
G1 X85.776 Y105.743 E0.01682
G1 X85.599 Y105.379 E0.01270
G1 X85.580 Y105.271 E0.00345
G1 X85.580 Y85.679 E0.61427
G1 X85.693 Y85.335 E0.01136
G1 X85.778 Y85.206 E0.00484
G1 X86.157 Y84.826 E0.01682
G1 X86.521 Y84.649 E0.01270
G1 X86.629 Y84.630 E0.00345
G1 X163.402 Y84.634 E2.40714
M73 P8 R25
M73 Q8 S26
G1 X163.519 Y84.661 E0.00377
G1 X163.792 Y84.790 E0.00947
G1 X164.223 Y85.207 E0.01880
G1 X164.307 Y85.335 E0.00479
G1 X164.420 Y85.679 E0.01136
G1 X164.420 Y105.271 E0.61427
